icons/svgs/arrow-down-outline.svg

<svg width="24" height="24" viewBox="0 0 24 24" fill="none" xmlns="http://www.w3.org/2000/svg">
<path d="M11.7971 20.4766L5.23457 13.6016C4.88301 13.2109 4.88301 12.625 5.27363 12.2734C5.66426 11.9219 6.25019 11.9219 6.60176 12.3125L11.5627 17.5078V4.1875C11.5627 3.67969 11.9533 3.25 12.5002 3.25C13.008 3.25 13.4377 3.67969 13.4377 4.1875V17.5078L18.3596 12.3125C18.7111 11.9219 19.3361 11.9219 19.6877 12.2734C20.0783 12.625 20.0783 13.2109 19.7268 13.6016L13.1643 20.4766C12.9689 20.6719 12.7346 20.75 12.5002 20.75C12.2268 20.75 11.9924 20.6719 11.7971 20.4766Z" fill="black"/>
</svg>

<svg xmlns="http://www.w3.org/2000/svg" width="24" height="24" fill="currentColor" class="icon-arrow-down-outline" viewBox="0 0 24 24">
  <mask id="a" width="16" height="18" x="4" y="3" maskUnits="userSpaceOnUse" style="mask-type:alpha">
    <path d="m11.797 20.477-6.563-6.875c-.351-.391-.351-.977.04-1.329.39-.351.976-.351 1.328.04l4.96 5.195V4.188c0-.508.391-.938.938-.938a.95.95 0 0 1 .937.938v13.32l4.922-5.195a.93.93 0 0 1 1.328-.04c.391.352.391.938.04 1.329l-6.563 6.875a.92.92 0 0 1-.664.273c-.274 0-.508-.078-.703-.273"/>
  </mask>
  <g mask="url(#a)">
    <path d="M0 0h24v24H0z"/>
  </g>
</svg>
